X:128
T:Shuter's Humour
M:2/4
L:1/8
B:Thompson's Compleat Collection of 200 Favourite Country Dances, vol. 1 (London, 1757)
Z:Transcribed and edited by Flynn Titford-Mock, 2007
Z:abc's:AK/Fiddler's Companion
K:D
c|d2 (f/g/a)|fdec|d2 (f/g/a)|e2 g2|fdec|dBAG|FdEc|D2 d:|
|:e|fdec|fdec|dBcA|^G2B2|(A/B/c) (B/c/d)|cefd|caB^g|A2 A c|
d2 (f/g/a)|fdec|d2 (f/g/a)|e2 g2|(f/g/a) fd|ecdB|AGFE|D2 d:|

